X: 1
T: Pleskova\'c kolo   [D,G]
O: Croatia
Z: 1999 John Chambers <jc@trillian.mit.edu> http://trillian.mit.edu/~jc/music/
M: 2/4
L: 1/16
P: D
K: D
|: "D"F2A2 F2A2 | "A7"GFE2 "D"F2D2 | "D"F2A2 F2A2 | "A7"GFE2 "D"D4 \
:: "G"BcdB "A7"edcB | "D"A2F2 F4 | "A7"EFGF AGFE |1 "D"D2F2 A4 :|2 "D"D2F2 D4 |]
P: G
K: G
|: "G"B2d2 B2d2 | "D7"cBA2 "G"B2G2 | "G"B2d2 B2d2 | "D7"cBA2 "G"G4 \
:: "C"efge "D7"agfe | "G"d2B2 B4 | "D7"ABcB dcBA |1 "G"G2B2 d4 :|2 "G"G2B2 G4 |]

